build/assets/images/svg/food/7-myaso_i_ptitsa.svg

<svg width="28" height="28" viewBox="0 0 28 28" fill="none" xmlns="http://www.w3.org/2000/svg">
<path d="M19.5829 26.3681V25.8681H19.5569L19.531 25.8708L19.5829 26.3681ZM15.0924 24.4607L15.4497 24.1109L15.4497 24.1109L15.0924 24.4607ZM9.58341 21.6257L9.54731 22.1243L9.54736 22.1243L9.58341 21.6257ZM2.15641 18.8326L1.73625 19.1037L1.73636 19.1039L2.15641 18.8326ZM1.44935 7.71681L1.90529 7.92202L1.9056 7.92134L1.44935 7.71681ZM1.50184 14.6363L1.05135 14.8532L1.05223 14.855L1.50184 14.6363ZM2.15985 15.8158L1.73926 16.0862L1.73969 16.0869L2.15985 15.8158ZM9.58685 18.6088L9.62295 18.1101L9.6229 18.1101L9.58685 18.6088ZM15.0958 21.4438L15.4532 21.0941L15.4531 21.094L15.0958 21.4438ZM19.5863 23.3513V22.8513H19.5607L19.5352 22.8539L19.5863 23.3513ZM27.0098 9.90081L27.507 9.84738L27.5052 9.83101L27.5024 9.81479L27.0098 9.90081ZM21.4133 3.77931L21.3926 4.27888L21.3926 4.27888L21.4133 3.77931ZM6.66085 3.77931L6.65158 3.27939L6.64912 3.27945L6.66085 3.77931ZM1.90784 6.79981L2.34233 7.04736L2.34597 7.04073L1.90784 6.79981ZM20.8509 6.33442C21.0191 6.11544 20.978 5.80154 20.759 5.6333C20.5401 5.46506 20.2262 5.50618 20.0579 5.72515L20.8509 6.33442ZM12.9424 14.9862C12.7742 15.2051 12.8153 15.519 13.0343 15.6873C13.2532 15.8555 13.5671 15.8144 13.7354 15.5954L12.9424 14.9862ZM16.6228 6.33432C16.791 6.11531 16.7498 5.80142 16.5308 5.63323C16.3118 5.46504 15.9979 5.50624 15.8297 5.72525L16.6228 6.33432ZM8.71773 14.9863C8.54953 15.2053 8.59073 15.5192 8.80975 15.6873C9.02876 15.8555 9.34265 15.8143 9.51084 15.5953L8.71773 14.9863ZM12.1918 6.33442C12.36 6.11544 12.3189 5.80154 12.0999 5.6333C11.881 5.46506 11.5671 5.50618 11.3988 5.72515L12.1918 6.33442ZM4.28333 14.9862C4.11508 15.2051 4.15621 15.519 4.37518 15.6873C4.59415 15.8555 4.90805 15.8144 5.07629 15.5954L4.28333 14.9862ZM27.0834 12.6761C26.5859 12.7259 26.5859 12.7258 26.5859 12.7257C26.5859 12.7258 26.5859 12.7258 26.5859 12.7259C26.5859 12.7261 26.586 12.7265 26.586 12.7271C26.5861 12.7283 26.5863 12.7304 26.5866 12.7333C26.5871 12.739 26.588 12.7479 26.5891 12.76C26.5912 12.7841 26.5944 12.8207 26.5981 12.869C26.6057 12.9655 26.6158 13.1085 26.6256 13.2913C26.6452 13.6571 26.6637 14.1815 26.6587 14.8115C26.6486 16.0744 26.544 17.7478 26.1711 19.4129C25.797 21.0835 25.1619 22.7044 24.1196 23.9002C23.093 25.0779 21.6517 25.8681 19.5829 25.8681V26.8681C21.9486 26.8681 23.6621 25.9469 24.8734 24.5573C26.0688 23.1859 26.7545 21.3838 27.147 19.6314C27.5406 17.8735 27.6482 16.1239 27.6586 14.8195C27.6639 14.1659 27.6447 13.6207 27.6242 13.2377C27.6139 13.0461 27.6032 12.8949 27.5951 12.7909C27.591 12.7388 27.5876 12.6985 27.5851 12.6709C27.5838 12.657 27.5828 12.6463 27.5821 12.6389C27.5818 12.6352 27.5815 12.6323 27.5813 12.6302C27.5812 12.6291 27.5811 12.6283 27.5811 12.6277C27.581 12.6274 27.581 12.627 27.581 12.6269C27.581 12.6266 27.5809 12.6264 27.0834 12.6761ZM19.5829 26.3681C19.531 25.8708 19.5312 25.8708 19.5314 25.8708C19.5315 25.8708 19.5317 25.8708 19.5318 25.8708C19.5321 25.8707 19.5323 25.8707 19.5325 25.8707C19.5328 25.8707 19.5331 25.8706 19.5331 25.8706C19.5333 25.8706 19.5329 25.8707 19.5319 25.8707C19.53 25.8709 19.5259 25.8713 19.5197 25.8717C19.5073 25.8726 19.4865 25.8739 19.4579 25.875C19.4006 25.8771 19.3124 25.8783 19.1983 25.8737C18.9699 25.8644 18.6394 25.8318 18.2465 25.7369C17.463 25.5477 16.4288 25.1111 15.4497 24.1109L14.7351 24.8104C15.8665 25.9662 17.0776 26.4834 18.0117 26.7089C18.4776 26.8214 18.874 26.8614 19.1578 26.8729C19.2998 26.8786 19.414 26.8773 19.4952 26.8743C19.5358 26.8727 19.5681 26.8708 19.5916 26.8691C19.6034 26.8683 19.6129 26.8675 19.6201 26.8668C19.6237 26.8665 19.6268 26.8662 19.6292 26.866C19.6305 26.8659 19.6315 26.8658 19.6325 26.8657C19.6329 26.8656 19.6334 26.8656 19.6338 26.8656C19.634 26.8655 19.6342 26.8655 19.6343 26.8655C19.6346 26.8655 19.6348 26.8654 19.5829 26.3681ZM15.4497 24.1109C13.7604 22.3855 12.1062 21.3067 9.61946 21.127L9.54736 22.1243C11.7086 22.2806 13.1484 23.1898 14.7351 24.8104L15.4497 24.1109ZM9.61952 21.127C8.45505 21.0427 7.02237 20.9292 5.69887 20.5588C4.37184 20.1873 3.23316 19.5785 2.57647 18.5614L1.73636 19.1039C2.58467 20.4177 3.99924 21.1215 5.42932 21.5218C6.86295 21.9231 8.39128 22.0407 9.54731 22.1243L9.61952 21.127ZM2.57657 18.5616C1.89239 17.501 1.54761 15.8744 1.38304 14.4497C1.30208 13.7488 1.26686 13.118 1.25193 12.6624C1.24447 12.4349 1.2421 12.2518 1.24158 12.1263C1.24132 12.0636 1.24152 12.0153 1.24178 11.9832C1.24191 11.9671 1.24205 11.955 1.24216 11.9472C1.24221 11.9433 1.24225 11.9405 1.24228 11.9387C1.2423 11.9378 1.24231 11.9372 1.24231 11.9369C1.24232 11.9367 1.24232 11.9366 1.24232 11.9366C1.24232 11.9366 1.24232 11.9366 1.24232 11.9366C1.24232 11.9366 1.24232 11.9367 0.742408 11.9271C0.2425 11.9176 0.242498 11.9177 0.242496 11.9178C0.242494 11.9179 0.242492 11.918 0.24249 11.9181C0.242485 11.9184 0.242479 11.9187 0.242472 11.9191C0.242458 11.9199 0.24244 11.9209 0.242418 11.9223C0.242375 11.9249 0.242316 11.9287 0.24225 11.9335C0.242118 11.9432 0.241953 11.9571 0.241809 11.9751C0.241519 12.0111 0.241307 12.0635 0.241586 12.1305C0.242143 12.2645 0.244665 12.4572 0.252466 12.6952C0.268053 13.1708 0.304797 13.8299 0.38965 14.5645C0.556707 16.0107 0.918936 17.8368 1.73625 19.1037L2.57657 18.5616ZM0.993398 7.5116C-0.0588352 9.84948 -0.0651454 12.5346 1.05135 14.8532L1.95233 14.4194C0.968832 12.377 0.969526 10.0011 1.90529 7.92202L0.993398 7.5116ZM1.05223 14.855C1.24806 15.2576 1.47454 15.6744 1.73926 16.0862L2.58043 15.5454C2.34115 15.1732 2.13362 14.792 1.95146 14.4176L1.05223 14.855ZM1.73969 16.0869C2.58626 17.3992 4.00007 18.1029 5.42999 18.5036C6.86362 18.9053 8.39272 19.0238 9.55079 19.1075L9.6229 18.1101C8.45697 18.0258 7.02332 17.9116 5.69983 17.5407C4.37262 17.1688 3.23493 16.56 2.58 15.5448L1.73969 16.0869ZM9.55074 19.1075C11.7088 19.2637 13.1486 20.1697 14.7386 21.7936L15.4531 21.094C13.7601 19.3649 12.1059 18.2899 9.62295 18.1101L9.55074 19.1075ZM14.7385 21.7936C15.8683 22.9477 17.0794 23.4648 18.0137 23.6907C18.4796 23.8034 18.8763 23.8437 19.1602 23.8555C19.3023 23.8614 19.4166 23.8602 19.4978 23.8573C19.5384 23.8559 19.5708 23.854 19.5943 23.8523C19.606 23.8515 19.6155 23.8507 19.6228 23.8501C19.6264 23.8498 19.6294 23.8495 19.6319 23.8492C19.6331 23.8491 19.6342 23.849 19.6351 23.8489C19.6356 23.8489 19.636 23.8488 19.6364 23.8488C19.6366 23.8488 19.6369 23.8488 19.637 23.8487C19.6372 23.8487 19.6375 23.8487 19.5863 23.3513C19.5352 22.8539 19.5355 22.8539 19.5357 22.8539C19.5357 22.8539 19.5359 22.8539 19.5361 22.8538C19.5363 22.8538 19.5365 22.8538 19.5367 22.8538C19.5371 22.8537 19.5373 22.8537 19.5373 22.8537C19.5375 22.8537 19.5371 22.8537 19.5361 22.8538C19.5342 22.854 19.5301 22.8543 19.5239 22.8548C19.5114 22.8557 19.4905 22.8569 19.4618 22.858C19.4044 22.86 19.3161 22.8611 19.2018 22.8564C18.9729 22.8469 18.6421 22.8139 18.2488 22.7188C17.4645 22.5291 16.4304 22.0924 15.4532 21.0941L14.7385 21.7936ZM19.5863 23.8513C21.9489 23.8513 23.6575 22.9476 24.8629 21.5803C26.0526 20.2309 26.7291 18.4578 27.1121 16.7345C27.4962 15.0059 27.594 13.2857 27.5971 12.0037C27.5987 11.3612 27.5765 10.8252 27.5537 10.4486C27.5424 10.2603 27.5308 10.1116 27.5221 10.0093C27.5177 9.95809 27.514 9.91845 27.5114 9.8912C27.5101 9.87758 27.509 9.86704 27.5083 9.8597C27.5079 9.85604 27.5076 9.85317 27.5074 9.85111C27.5073 9.85008 27.5072 9.84925 27.5071 9.84863C27.5071 9.84832 27.507 9.84801 27.507 9.84785C27.507 9.84759 27.507 9.84738 27.0098 9.90081C26.5127 9.95424 26.5127 9.95413 26.5127 9.95407C26.5127 9.95412 26.5127 9.95412 26.5127 9.95421C26.5127 9.95441 26.5128 9.95481 26.5128 9.95541C26.513 9.95661 26.5132 9.95861 26.5135 9.96141C26.514 9.967 26.5149 9.97576 26.5161 9.98758C26.5183 10.0112 26.5217 10.0471 26.5257 10.0945C26.5338 10.1891 26.5447 10.3294 26.5555 10.5089C26.5772 10.8679 26.5986 11.3828 26.5971 12.0012C26.5941 13.2411 26.499 14.8836 26.1359 16.5176C25.7716 18.1569 25.1465 19.7465 24.1128 20.919C23.0949 22.0737 21.6583 22.8513 19.5863 22.8513V23.8513ZM27.0098 9.90081C27.5024 9.81479 27.5024 9.81459 27.5023 9.81437C27.5023 9.81427 27.5023 9.81402 27.5022 9.81381C27.5021 9.81339 27.5021 9.81288 27.5019 9.81228C27.5017 9.81108 27.5015 9.80952 27.5011 9.8076C27.5004 9.80378 27.4995 9.79853 27.4982 9.79191C27.4957 9.77867 27.4922 9.75993 27.4874 9.73606C27.4778 9.68832 27.4635 9.61997 27.4438 9.53391C27.4044 9.36188 27.3433 9.11842 27.2555 8.82672C27.0803 8.24505 26.7961 7.46275 26.3598 6.6699C25.4925 5.09349 23.9669 3.38471 21.434 3.27974L21.3926 4.27888C23.4203 4.36291 24.693 5.71489 25.4837 7.15197C25.8765 7.86587 26.1364 8.57851 26.298 9.11508C26.3785 9.38251 26.434 9.604 26.469 9.75715C26.4866 9.83367 26.499 9.89296 26.5068 9.93222C26.5107 9.95184 26.5135 9.96644 26.5152 9.97566C26.5161 9.98027 26.5167 9.98354 26.517 9.98541C26.5172 9.98635 26.5173 9.98694 26.5174 9.98718C26.5174 9.9873 26.5174 9.98733 26.5174 9.98727C26.5174 9.98724 26.5174 9.98713 26.5174 9.98711C26.5173 9.98698 26.5173 9.98682 27.0098 9.90081ZM21.4341 3.27974C19.1416 3.18466 15.4417 3.18484 12.3244 3.20845C10.7638 3.22028 9.34574 3.23801 8.31791 3.25279C7.80397 3.26017 7.38752 3.26683 7.09949 3.27163C6.95548 3.27403 6.84357 3.27597 6.76763 3.27731C6.72966 3.27798 6.70068 3.2785 6.68118 3.27886C6.67143 3.27903 6.66404 3.27917 6.65909 3.27926C6.65661 3.27931 6.65474 3.27934 6.65349 3.27936C6.65286 3.27937 6.65239 3.27938 6.65207 3.27939C6.65191 3.27939 6.65179 3.27939 6.65171 3.2794C6.65162 3.2794 6.65158 3.2794 6.66085 3.77931C6.67011 4.27923 6.67015 4.27923 6.67022 4.27922C6.67029 4.27922 6.6704 4.27922 6.67055 4.27922C6.67085 4.27921 6.67131 4.2792 6.67192 4.27919C6.67314 4.27917 6.67497 4.27914 6.67741 4.27909C6.6823 4.279 6.68961 4.27887 6.69928 4.27869C6.71864 4.27834 6.74747 4.27783 6.78528 4.27716C6.86092 4.27582 6.9725 4.27389 7.11617 4.27149C7.40352 4.2667 7.81919 4.26006 8.33228 4.25268C9.35851 4.23793 10.7742 4.22022 12.332 4.20842C15.4517 4.18479 19.1281 4.18496 21.3926 4.27888L21.4341 3.27974ZM6.66085 3.77931C6.64912 3.27945 6.64888 3.27946 6.64863 3.27946C6.64853 3.27946 6.64826 3.27947 6.64807 3.27948C6.64767 3.27949 6.64722 3.2795 6.64672 3.27951C6.64573 3.27954 6.64455 3.27957 6.64317 3.27961C6.64043 3.2797 6.63692 3.27982 6.63267 3.27998C6.62416 3.28031 6.61268 3.28081 6.59836 3.28158C6.56974 3.28312 6.52974 3.28574 6.47953 3.29013C6.37917 3.2989 6.23763 3.31481 6.06422 3.34359C5.71803 3.40104 5.24099 3.51041 4.7094 3.71898C3.64388 4.13706 2.34963 4.95869 1.46971 6.55889L2.34597 7.04073C3.08656 5.69392 4.16881 5.00531 5.07466 4.64989C5.52876 4.47172 5.93613 4.37852 6.22793 4.3301C6.37351 4.30594 6.48935 4.29308 6.56663 4.28633C6.60524 4.28295 6.63413 4.28111 6.65218 4.28013C6.6612 4.27965 6.66751 4.27938 6.67095 4.27925C6.67268 4.27918 6.67369 4.27915 6.67396 4.27914C6.6741 4.27914 6.67406 4.27914 6.67382 4.27914C6.67371 4.27915 6.67355 4.27915 6.67334 4.27916C6.67323 4.27916 6.67304 4.27916 6.67299 4.27916C6.67279 4.27917 6.67257 4.27917 6.66085 3.77931ZM1.47341 6.55228C1.29114 6.87219 1.13334 7.19942 0.993091 7.51228L1.9056 7.92134C2.03835 7.62521 2.18155 7.32942 2.34228 7.04733L1.47341 6.55228ZM21.2144 15.9906C21.2144 16.9902 20.404 17.8006 19.4044 17.8006V18.8006C20.9563 18.8006 22.2144 17.5425 22.2144 15.9906H21.2144ZM19.4044 17.8006C18.4048 17.8006 17.5944 16.9902 17.5944 15.9906H16.5944C16.5944 17.5425 17.8525 18.8006 19.4044 18.8006V17.8006ZM17.5944 15.9906C17.5944 14.9909 18.4048 14.1806 19.4044 14.1806V13.1806C17.8525 13.1806 16.5944 14.4386 16.5944 15.9906H17.5944ZM19.4044 14.1806C20.404 14.1806 21.2144 14.9909 21.2144 15.9906H22.2144C22.2144 14.4386 20.9563 13.1806 19.4044 13.1806V14.1806ZM20.0579 5.72515L12.9424 14.9862L13.7354 15.5954L20.8509 6.33442L20.0579 5.72515ZM15.8297 5.72525L8.71773 14.9863L9.51084 15.5953L16.6228 6.33432L15.8297 5.72525ZM11.3988 5.72515L4.28333 14.9862L5.07629 15.5954L12.1918 6.33442L11.3988 5.72515Z" fill="#203686"/>
</svg>

<svg width="28" height="28" fill="none" xmlns="http://www.w3.org/2000/svg"><path d="M19.583 26.368v-.5h-.026l-.026.003.052.497zm-4.49-1.907l.357-.35-.358.35zm-5.51-2.835l-.036.498.036-.498zm-7.427-2.793l-.42.27.42-.27zM1.45 7.717l.456.205-.456-.205zm.053 6.92l-.45.216v.002l.45-.219zm.658 1.179l-.42.27.42-.27zm7.427 2.793l.036-.499-.036.499zm5.509 2.835l.357-.35-.357.35zm4.49 1.907v-.5h-.025l-.026.003.051.497zm7.424-13.45l.497-.054-.002-.016-.003-.016-.492.086zm-5.597-6.122l-.02.5.02-.5zm-14.752 0l-.01-.5H6.65l.012.5zM1.908 6.8l.434.248.004-.006-.438-.241zm18.943-.465a.5.5 0 00-.793-.609l.793.61zm-7.909 8.652a.5.5 0 00.793.61l-.793-.61zm3.68-8.652a.5.5 0 10-.792-.609l.793.61zm-7.904 8.652a.5.5 0 10.793.61l-.793-.61zm3.474-8.652a.5.5 0 00-.793-.609l.793.61zm-7.909 8.652a.5.5 0 10.793.61l-.793-.61zm22.8-2.31l-.497.05v.001a.35.35 0 000 .006l.003.027.01.109a24.974 24.974 0 01.06 1.943c-.01 1.262-.115 2.936-.488 4.6-.374 1.672-1.01 3.292-2.051 4.488-1.027 1.178-2.468 1.968-4.537 1.968v1c2.366 0 4.08-.921 5.29-2.31 1.196-1.372 1.881-3.174 2.274-4.927.394-1.758.501-3.507.512-4.812a25.916 25.916 0 00-.064-2.028 10.725 10.725 0 00-.01-.12l-.003-.032v-.011l-.001-.001-.498.05zm-7.5 13.692l-.052-.497h.001-.012a3.408 3.408 0 01-.321.002 4.944 4.944 0 01-.952-.136c-.784-.19-1.818-.626-2.797-1.626l-.715.7c1.132 1.155 2.343 1.672 3.277 1.898a6.02 6.02 0 001.146.164 4.412 4.412 0 00.462-.006l.01-.001h.004l-.051-.498zm-4.133-2.257c-1.69-1.726-3.344-2.804-5.83-2.984l-.073.997c2.162.157 3.601 1.066 5.188 2.686l.715-.7zm-5.83-2.984c-1.165-.084-2.598-.198-3.921-.568-1.327-.372-2.466-.98-3.123-1.998l-.84.543C2.585 20.418 4 21.122 5.43 21.522c1.434.401 2.962.519 4.118.602l.073-.997zm-7.043-2.565c-.685-1.061-1.03-2.688-1.194-4.112a22.112 22.112 0 01-.14-2.513l-.5-.01a121.503 121.503 0 00-.5-.009v.004a4.092 4.092 0 00-.001.053v.155a23.113 23.113 0 00.148 2.434c.167 1.447.529 3.273 1.346 4.54l.84-.542zM.993 7.512c-1.052 2.337-1.058 5.023.058 7.341l.901-.434C.97 12.377.97 10.001 1.905 7.922l-.912-.41zm.06 7.343c.195.403.422.82.686 1.231l.841-.54a11.263 11.263 0 01-.629-1.128l-.899.437zm.687 1.232c.846 1.312 2.26 2.016 3.69 2.417 1.434.401 2.963.52 4.12.604l.073-.998c-1.166-.084-2.6-.198-3.923-.57-1.327-.371-2.465-.98-3.12-1.995l-.84.542zm7.81 3.02c2.159.157 3.599 1.063 5.189 2.687l.714-.7c-1.693-1.73-3.347-2.804-5.83-2.984l-.072.998zm5.188 2.687c1.13 1.154 2.341 1.67 3.276 1.897.466.112.862.153 1.146.165a4.402 4.402 0 00.434-.004l.029-.002a.255.255 0 00.012-.001h.002l-.05-.498-.051-.497h.001-.013a3.454 3.454 0 01-.322.002 4.966 4.966 0 01-.953-.137c-.784-.19-1.819-.627-2.796-1.625l-.714.7zm4.848 2.057c2.363 0 4.072-.903 5.277-2.27 1.19-1.35 1.866-3.123 2.25-4.846.383-1.73.481-3.45.484-4.731a24.954 24.954 0 00-.075-1.995 12.4 12.4 0 00-.01-.118l-.004-.031a.757.757 0 010-.011l-.001-.001-.497.053-.497.053v.007l.003.027.01.107a24.015 24.015 0 01.071 1.907c-.003 1.24-.098 2.882-.461 4.516-.364 1.639-.99 3.229-2.023 4.401-1.018 1.155-2.455 1.932-4.527 1.932v1zm7.424-13.95l.492-.087v-.006l-.004-.016-.01-.056a10.983 10.983 0 00-.232-.91 11.281 11.281 0 00-.896-2.156c-.867-1.577-2.393-3.285-4.926-3.39l-.041.999c2.027.084 3.3 1.436 4.09 2.873a10.286 10.286 0 011.034 2.833v.002l.493-.086zM21.434 3.28c-2.292-.095-5.992-.095-9.11-.072a598.952 598.952 0 00-5.643.07l-.022.001a1.266 1.266 0 01-.007 0 165.74 165.74 0 00.018 1h.03l.086-.002a337.107 337.107 0 011.547-.024 597.88 597.88 0 014-.045c3.12-.023 6.796-.023 9.06.07l.042-.998zm-14.773.5l-.012-.5h-.006a2.167 2.167 0 00-.163.01c-.1.009-.242.025-.416.054a6.779 6.779 0 00-1.355.375 6.236 6.236 0 00-3.24 2.84l.877.482A5.237 5.237 0 015.075 4.65a5.778 5.778 0 011.153-.32 4.46 4.46 0 01.443-.05h.002l-.012-.5zM1.473 6.551c-.182.32-.34.647-.48.96l.913.41c.132-.297.276-.593.436-.875l-.869-.495zm19.741 9.439c0 1-.81 1.81-1.81 1.81v1a2.81 2.81 0 002.81-2.81h-1zm-1.81 1.81c-1 0-1.81-.81-1.81-1.81h-1a2.81 2.81 0 002.81 2.81v-1zm-1.81-1.81c0-1 .81-1.81 1.81-1.81v-1a2.81 2.81 0 00-2.81 2.81h1zm1.81-1.81c1 0 1.81.81 1.81 1.81h1a2.81 2.81 0 00-2.81-2.81v1zm.654-8.456l-7.116 9.261.793.61 7.116-9.262-.793-.609zm-4.228 0l-7.112 9.261.793.61 7.112-9.262-.793-.609zm-4.431 0l-7.116 9.261.793.61 7.116-9.262-.793-.609z" fill="#203686"/></svg>
